!!!OTL: Tageweise von Kristes geburt und von den heiligen drei kuenigen
!!!ARE: Europa, Mitteleuropa, Deutschland
!!!SCT: A0513
!!!YEM: Copyright 1995, estate of Helmut Schaffrath.
**kern
*ICvox
*Ivox
!! Mixed meters:  4/4; 6/4
*M6/4
*k[f#c#]
*D:
{4d
4d
4d
=1
4a
4b
4ccn
4a
=2
2a
4r}
{8a
8g
4fn
4e
=3
*M4/4
4d
4d
4cn
4d
=4
4a
4e
2d
=5
4r}
{4d
4d
4d
=6
4a
4b
4ccn
4a
=7
*M6/4
2a
4r}
{8a
8g
4fn
4e
=8
*M4/4
4d
4d
4cn
4d
=9
4a
4e
2d
=10
4r}
{4d
4e
4fn
=11
4g
4a
4g
4fn
=12
2g
4r}
{4d
=13
4e
4fn
4g
4a
=14
4g
4fn
2g
=15
4r}
{8a
8g
4fn
4e
=16
4e
4d
4cn
4d
=17
4fn
4e
2d
=18
4r}
==
!!!AGN: Romanze, Ballade, Lied, religioeses Lied
!! Lambacher Hs. und Spoerls Liederbuch 1392.
!!!ONB: ESAC (Essen Associative Code) Database: ALTDEU
!!!AMT: irregular
!!!AIN: vox
!!!EED: Helmut Schaffrath
!!!EEV: 1.0
*-
